app/assets/v2/images/hiring.svg

<svg height="16" width="64" xmlns="http://www.w3.org/2000/svg"><g fill="none" fill-rule="evenodd"><path d="m4.69 7.88h1.28v7.12h-1.28v-3.09h-3.65v3.09h-1.27v-7.12h1.27v2.98h3.65zm5.56 7.12v-7.12h1.29v7.12zm11.43 0h-1.36l-.91-2.37c-.08-.22-.203-.373-.37-.46s-.383-.13-.65-.13h-1.29v2.96h-1.28v-7.12h3.05c.807 0 1.42.177 1.84.53s.63.86.63 1.52c0 .473-.125.875-.375 1.205s-.605.565-1.065.705c.42.087.723.38.91.88zm-2.99-3.96c.487 0 .847-.09 1.08-.27s.35-.453.35-.82c0-.36-.115-.628-.345-.805s-.592-.265-1.085-.265h-1.61v2.16zm6.89 3.96v-7.12h1.29v7.12zm10.36-7.12h1.21v7.12h-.96l-3.84-4.99v4.99h-1.2v-7.12h.96l3.83 4.98zm11.44 3.27v3.42a4.91 4.91 0 0 1 -1.18.38c-.46.093-.93.14-1.41.14-.733 0-1.37-.147-1.91-.44a2.975 2.975 0 0 1 -1.24-1.26c-.287-.547-.43-1.2-.43-1.96 0-.747.143-1.393.43-1.94a2.998 2.998 0 0 1 1.225-1.26c.53-.293 1.152-.44 1.865-.44.5 0 .968.073 1.405.22s.802.353 1.095.62l-.44.94a3.53 3.53 0 0 0 -.98-.56c-.32-.113-.67-.17-1.05-.17-.733 0-1.288.22-1.665.66s-.565 1.083-.565 1.93c0 .873.193 1.532.58 1.975s.963.665 1.73.665c.467 0 .927-.063 1.38-.19v-1.8h-1.54v-.93z" fill="#4a90e2"/><path d="m52 8.5s1.75.625 3.667.625c1.916 0 2.138-.625 4-.625 1.861 0 3.666.625 3.666.625v-7.5s-1.805-.625-3.666-.625c-1.862 0-2.084.625-4 .625-1.917 0-3.667-.625-3.667-.625zm0 6.875v-14.375" stroke="#4a90e2" stroke-linecap="round" stroke-linejoin="round"/></g></svg>

<svg width="64" height="16" xmlns="http://www.w3.org/2000/svg"><g fill="none" fill-rule="evenodd"><path d="M4.69 7.88h1.28V15H4.69v-3.09H1.04V15H-.23V7.88h1.27v2.98h3.65V7.88zM10.25 15V7.88h1.29V15h-1.29zm11.43 0h-1.36l-.91-2.37c-.08-.22-.203-.373-.37-.46-.167-.087-.383-.13-.65-.13H17.1V15h-1.28V7.88h3.05c.807 0 1.42.177 1.84.53.42.353.63.86.63 1.52 0 .473-.125.875-.375 1.205-.25.33-.605.565-1.065.705.42.087.723.38.91.88l.87 2.28zm-2.99-3.96c.487 0 .847-.09 1.08-.27.233-.18.35-.453.35-.82 0-.36-.115-.628-.345-.805-.23-.177-.592-.265-1.085-.265h-1.61v2.16h1.61zM25.58 15V7.88h1.29V15h-1.29zm10.36-7.12h1.21V15h-.96l-3.84-4.99V15h-1.2V7.88h.96l3.83 4.98V7.88zm11.44 3.27v3.42a4.91 4.91 0 0 1-1.18.38c-.46.093-.93.14-1.41.14-.733 0-1.37-.147-1.91-.44a2.975 2.975 0 0 1-1.24-1.26c-.287-.547-.43-1.2-.43-1.96 0-.747.143-1.393.43-1.94a2.998 2.998 0 0 1 1.225-1.26c.53-.293 1.152-.44 1.865-.44.5 0 .968.073 1.405.22.437.147.802.353 1.095.62l-.44.94a3.53 3.53 0 0 0-.98-.56c-.32-.113-.67-.17-1.05-.17-.733 0-1.288.22-1.665.66-.377.44-.565 1.083-.565 1.93 0 .873.193 1.532.58 1.975.387.443.963.665 1.73.665.467 0 .927-.063 1.38-.19v-1.8h-1.54v-.93h2.7z" fill="#4A90E2"/><g stroke="#4A90E2" stroke-linecap="round" stroke-linejoin="round"><path d="M52 8.5s1.75.625 3.667.625c1.916 0 2.138-.625 4-.625 1.861 0 3.666.625 3.666.625v-7.5S61.528 1 59.667 1c-1.862 0-2.084.625-4 .625C53.75 1.625 52 1 52 1v7.5h0zM52 15.375V1"/></g></g></svg>
